X:1
T:Title
%%score [ ( 1 2 ) ( 3 4 ) ]
L:1/8
Q:1/4=100
M:3/4
K:Eb
V:1 treble nm="Midi_20" snm=" "
V:2 treble 
V:3 bass nm="Midi_20"
V:4 bass 
V:1
"^Bristol (L.M.)""^For thee, my God, for thee alone""^Samuel Wesley\n(1766-1837)""^James Drummond Burns\n(1823-64)" G2 | %1
 G4 A2 | (G2 F2) E2 | (A2 G2) F2 | G4 || B2 | e4 d2 | c4 B2 | (=A2 G2) ^F2 | G4 || B2 | B4 A2 | %12
 A2 G4 | (F2 E3) F | (E2 D2) || B2 | e4 c2 | A4 G2 | (GF E2) D2 | E4 |] %20
V:2
 E2 | E4 F2 | (E2 D2) E2 | (F2 E2) D2 | E4 || G2 | G4 ^F2 | (G2 D2) D2 | (E2 D2) DC | B,4 || G2 | %11
 G4 F2 | F2 E4 | C2 =A,4 | B,4 || D2 | G4 G2 | (G2 F2) E2 | (C2 B,2) B,2 | B,4 |] %20
V:3
 B,2 | B,4 C2 | (B,2 A,2) G,2 | (C2 B,2) B,2 | B,4 || B,2 | =A,4 B,2 | (B,2 =A,2) G,2 | %8
 (C2 B,2) =A,2 | G,4 || %10
"^1. For thee, my God, for thee alone\nMy spirit longs with ardent love;\nOn earth beside thee there is none,\nAnd none but thee in heaven above.\n\n2. Fulfil, O God, my heart's desires;\nWhile I look up, look down to bless;\nEach holy wish thy grace inspires\nMay I in thy deep love possess.\n\n3. My soul cleaves heavy to the dust,\nBut thou canst raise and set it free;\nAnd then, in calm and joyful trust,\nIt soars from earth to heaven and thee." D2 | %11
 C4 C2 | B,2 B,4 | A,2 F,4 | F,4 || %15
"^4. Now in this stillness, as the breath\nOf prayer steals upward to the skies,\nO give my soul the wings of faith,\nThat it to thee may gladly rise;\n\n5. That, breaking through each fleshly link\nWhich binds its being to the clod,\nAt life's clear wellspring may it drink,\nRejoicing in the smile of God." B,2 | %16
 C4 C2 | (C3 D) B,2 | (B,A, G,2) F,2 | G,4 |] %20
V:4
 E,2 | E,4 A,,2 | B,,4 C,2 | A,,2 B,,4 | E,4 || E,2 | C,4 D,2 | (=E,2 ^F,2) G,2 | C,2 D,4 | G,4 || %10
 F,2 | =E,4 F,2 | D,2 E,4 | A,,2 C,4 | B,,4 || G,2 | C,4 E,2 | F,2 F,,2 G,,2 | A,,2 B,,4 | E,4 |] %20

